X: 100254
M: C|
L: 1/8
K: Gm
uA |\
uF |\
(DG)^FG (BG)A=F | (CF)=EF (AF)FA | (DG)^FG (BG)A=F | (Ad)D^F G2G=f |
(dg)ga (bg)af | (cf)fg (af)cf | (dg)bg (fb)dB | (Ad)D^F G2"^D.C."G |]


